X: 43398
T: Wyres Megan
R: waltz
M: 3/4
K: Gmajor
|:B>c|dB Gd BG|cd ec dB|AB cA BG|AF DA FD|
d>B Gd BG|cd ec dB|cA BG AF|1 G2 GA:|2 GD BA G2||
b>g db gd|a>f da fd|ge cg ec|aa/f/ da fd|
bb/g/ db gd|aa/f/ da fd|ge ^cg fe|de dc Bc|
d>B Gd BG|cd ec dB|AA/B/ cA B/A/G|AA/F/ DA FD|
dd/B/ Gd BG|cc/d/ ec dB|cA BG AF|G4||

